X: 30441
M: 2/4
L: 1/16
K: D
V: 1 staves=3
|:\
c2cB AFDF | AFdB AFDF | GBGE FAFD | EDEF E4 |\
|:\
e2ef ecAc | ecaf ecAc | dfdB cecA | (Bc)Bc B2c2 |\
dcdB AFDF | Adce d4 | BAGF EFGE | [F2D2]D2 D4 :|
V: 2
|:\
[F4A,4] [F2A,2][F2A,2] | [F4A,4] [F2A,2][F2A,2] |\
[E4A,4] [F2A,2]D2 | C2C2 C4 |
|:\
[F4A,4] [F2A,2][F2A,2] | [F2A,2][E2A,2] [F4A,4] |\
V: 3 clef=bass middle=d
|:\
d4 d2d2 | d4 d2d2 | c4 d2f2 | a2a2 a4 |\
d4 d2d2 | d4 d4 | e4 e4 | A2A2 A4 :|
|:\
a2a2a2a2 | a2a2a2a2 | e2e2a2a2 | e2e2e2e2 |\
d4 d2d2 | d2A2 d4 | f4 a2A2 | d2d2 d4 :|


